X: 2311
T: Mr Morthland's Reel
%R: reel
B: Niel Gow & Sons "A Second Collection of Strathspey Reels, etc." v.2 p.31 #1
Z: 2022 John Chambers <jc:trillian.mit.edu>
M: C|
L: 1/8
K: Gm
% - - - - - - - - - -
V: 1 staves=2
|:\
G3A (Bcd)B | {B}A3f A<Fc>A | G2TGA Bcdg | fdcA G/G/G G2 :| gdga gb(Tag) | fcfg fa(Tgf) |
gdga g(bTag) | fdTc>A G/G/G G2 || gdga gbag | .f(gTag) fdcf | dfga Tg(fg).a | feTc>A G/G/G G2 |]
% - - - - - - - - - -
V: 2 clef=bass middle=d
|:\
g2g2 g2g2 | f2f2 f2f2 | g2g2 g2g2 | b2d'2 g2g2 :| g2g2 g2g2 | f2f2 f2f2 |
g2g2 g2g2 | b2d'2 g2g2 || g2g2 g2g2 | f2f2 f2f2 | g2g2 g2g2 | b2d'2 g2g2 |]


